images/logo1.svg

<svg width="144" height="20" viewBox="0 0 144 20" fill="none" xmlns="http://www.w3.org/2000/svg">
<path d="M8.242 0.592H11.57L13.676 6.702L15.808 0.592H19.11L15.938 8.99L18.278 14.866L23.504 0.539999H27.404L20.02 19H16.926L13.676 11.252L10.452 19H7.358L0 0.539999H3.848L9.1 14.866L11.388 8.99L8.242 0.592ZM34.227 19.26C32.7536 19.26 31.4796 18.9393 30.405 18.298C29.3476 17.6567 28.5243 16.8073 27.935 15.75C27.3456 14.6753 27.051 13.514 27.051 12.266C27.051 10.9833 27.337 9.80467 27.909 8.73C28.4983 7.638 29.3303 6.77133 30.405 6.13C31.4796 5.47133 32.7623 5.142 34.253 5.142C35.7436 5.142 37.0176 5.47133 38.075 6.13C39.1323 6.77133 39.9383 7.62933 40.493 8.704C41.065 9.76133 41.351 10.9053 41.351 12.136C41.351 12.5867 41.325 12.9767 41.273 13.306H30.743C30.8296 14.3633 31.2196 15.1953 31.913 15.802C32.6236 16.4087 33.4383 16.712 34.357 16.712C35.0503 16.712 35.7003 16.5473 36.307 16.218C36.931 15.8713 37.3556 15.4207 37.581 14.866L40.571 15.698C40.0683 16.738 39.2623 17.596 38.153 18.272C37.0436 18.9307 35.735 19.26 34.227 19.26ZM30.665 11.096H37.789C37.685 10.0733 37.295 9.25 36.619 8.626C35.9603 7.98467 35.1543 7.664 34.201 7.664C33.265 7.664 32.459 7.98467 31.783 8.626C31.1243 9.25 30.7516 10.0733 30.665 11.096ZM52.0014 19.26C50.9614 19.26 50.0341 19.026 49.2194 18.558C48.4048 18.09 47.7634 17.4487 47.2954 16.634V19H44.2534V0.0199995H47.7374V7.768C48.2228 6.95333 48.8554 6.312 49.6354 5.844C50.4328 5.376 51.3601 5.142 52.4174 5.142C53.5961 5.142 54.6274 5.47133 55.5114 6.13C56.4128 6.77133 57.1148 7.62933 57.6174 8.704C58.1201 9.77867 58.3714 10.9573 58.3714 12.24C58.3714 13.5573 58.0941 14.7447 57.5394 15.802C56.9848 16.8593 56.2221 17.7 55.2514 18.324C54.2981 18.948 53.2148 19.26 52.0014 19.26ZM51.0394 16.296C51.7848 16.296 52.4348 16.114 52.9894 15.75C53.5614 15.386 54.0034 14.9007 54.3154 14.294C54.6448 13.67 54.8094 12.994 54.8094 12.266C54.8094 11.5207 54.6534 10.836 54.3414 10.212C54.0468 9.57067 53.6308 9.05933 53.0934 8.678C52.5561 8.29667 51.9408 8.106 51.2474 8.106C50.4848 8.106 49.7828 8.366 49.1414 8.886C48.5174 9.38867 48.0494 10.0127 47.7374 10.758V14.008C47.9628 14.684 48.4048 15.2387 49.0634 15.672C49.7221 16.088 50.3808 16.296 51.0394 16.296Z" fill="#2196F3"/>
<path d="M72.8479 5.376C72.6919 5.20267 72.3626 4.97733 71.8599 4.7C71.3573 4.40533 70.7506 4.14533 70.0399 3.92C69.3466 3.67733 68.6273 3.556 67.8819 3.556C65.9233 3.556 64.9439 4.24933 64.9439 5.636C64.9439 6.13867 65.0999 6.53733 65.4119 6.832C65.7239 7.12667 66.1919 7.378 66.8159 7.586C67.4399 7.794 68.2199 8.01933 69.1559 8.262C70.3693 8.574 71.4179 8.938 72.3019 9.354C73.2033 9.77 73.8879 10.3247 74.3559 11.018C74.8413 11.694 75.0839 12.5953 75.0839 13.722C75.0839 15.0393 74.7633 16.1053 74.1219 16.92C73.4979 17.7173 72.6659 18.298 71.6259 18.662C70.5859 19.026 69.4593 19.208 68.2459 19.208C66.8593 19.208 65.4813 19 64.1119 18.584C62.7599 18.1507 61.5553 17.5613 60.4979 16.816L62.0839 13.722C62.2399 13.878 62.5173 14.086 62.9159 14.346C63.3146 14.5887 63.7999 14.84 64.3719 15.1C64.9439 15.3427 65.5679 15.5507 66.2439 15.724C66.9199 15.8973 67.6046 15.984 68.2979 15.984C70.2739 15.984 71.2619 15.3513 71.2619 14.086C71.2619 13.5487 71.0626 13.1153 70.6639 12.786C70.2653 12.4567 69.7019 12.1793 68.9739 11.954C68.2633 11.7287 67.4313 11.4773 66.4779 11.2C65.2993 10.8707 64.3199 10.5067 63.5399 10.108C62.7773 9.692 62.2053 9.18067 61.8239 8.574C61.4426 7.95 61.2519 7.16133 61.2519 6.208C61.2519 4.94267 61.5466 3.88533 62.1359 3.036C62.7426 2.16933 63.5573 1.51933 64.5799 1.086C65.6026 0.635333 66.7379 0.409999 67.9859 0.409999C69.2686 0.409999 70.4646 0.617999 71.5739 1.034C72.6833 1.45 73.6366 1.92667 74.4339 2.464L72.8479 5.376ZM86.0966 18.298C85.6286 18.506 85.0479 18.714 84.3546 18.922C83.6786 19.13 82.9766 19.234 82.2486 19.234C81.6072 19.234 81.0179 19.1213 80.4806 18.896C79.9432 18.6707 79.5099 18.3153 79.1806 17.83C78.8686 17.3273 78.7126 16.6773 78.7126 15.88V8.054H76.9186V5.376H78.7126V0.956H82.1966V5.376H85.0566V8.054H82.1966V14.71C82.1966 15.178 82.3179 15.516 82.5606 15.724C82.8206 15.932 83.1326 16.036 83.4966 16.036C83.8606 16.036 84.2159 15.9753 84.5626 15.854C84.9092 15.7327 85.1866 15.6287 85.3946 15.542L86.0966 18.298ZM88.5611 13.904V5.376H92.0451V13.15C92.0451 15.2473 92.7991 16.296 94.3071 16.296C94.9831 16.296 95.6331 16.0967 96.2571 15.698C96.8984 15.282 97.4184 14.658 97.8171 13.826V5.376H101.301V15.1C101.301 15.4813 101.362 15.75 101.483 15.906C101.604 16.0447 101.821 16.1313 102.133 16.166V19C101.786 19.0693 101.492 19.1127 101.249 19.13C101.024 19.1473 100.816 19.156 100.625 19.156C100.001 19.156 99.4897 19.0173 99.0911 18.74C98.7097 18.4453 98.4844 18.0467 98.4151 17.544L98.3371 16.452C97.7304 17.388 96.9504 18.09 95.9971 18.558C95.0437 19.026 93.9951 19.26 92.8511 19.26C91.4471 19.26 90.3811 18.8093 89.6531 17.908C88.9251 16.9893 88.5611 15.6547 88.5611 13.904ZM104.711 12.188C104.711 10.888 104.971 9.70067 105.491 8.626C106.011 7.55133 106.731 6.702 107.649 6.078C108.568 5.454 109.617 5.142 110.795 5.142C111.801 5.142 112.702 5.39333 113.499 5.896C114.314 6.38133 114.947 7.00533 115.397 7.768V0.0199995H118.881V15.1C118.881 15.4813 118.942 15.75 119.063 15.906C119.185 16.0447 119.393 16.1313 119.687 16.166V19C119.063 19.1213 118.569 19.182 118.205 19.182C117.581 19.182 117.061 19.026 116.645 18.714C116.247 18.402 116.021 17.9947 115.969 17.492L115.917 16.634C115.415 17.4833 114.73 18.1333 113.863 18.584C113.014 19.0347 112.121 19.26 111.185 19.26C109.92 19.26 108.802 18.948 107.831 18.324C106.861 17.6827 106.098 16.8333 105.543 15.776C104.989 14.7013 104.711 13.5053 104.711 12.188ZM115.397 14.008V10.758C115.12 9.99533 114.643 9.36267 113.967 8.86C113.291 8.35733 112.598 8.106 111.887 8.106C111.177 8.106 110.553 8.30533 110.015 8.704C109.478 9.08533 109.062 9.59667 108.767 10.238C108.473 10.862 108.325 11.538 108.325 12.266C108.325 13.0113 108.49 13.696 108.819 14.32C109.149 14.9267 109.591 15.412 110.145 15.776C110.717 16.1227 111.367 16.296 112.095 16.296C112.754 16.296 113.404 16.0793 114.045 15.646C114.704 15.2127 115.155 14.6667 115.397 14.008ZM123.081 3.478V0.0199995H126.565V3.478H123.081ZM123.081 19V5.376H126.565V19H123.081ZM136.78 19.26C135.289 19.26 134.007 18.9393 132.932 18.298C131.875 17.6393 131.06 16.7727 130.488 15.698C129.916 14.6233 129.63 13.462 129.63 12.214C129.63 10.9487 129.916 9.77867 130.488 8.704C131.077 7.62933 131.901 6.77133 132.958 6.13C134.033 5.47133 135.307 5.142 136.78 5.142C138.253 5.142 139.519 5.47133 140.576 6.13C141.651 6.77133 142.474 7.62933 143.046 8.704C143.618 9.77867 143.904 10.9487 143.904 12.214C143.904 13.462 143.618 14.6233 143.046 15.698C142.474 16.7727 141.651 17.6393 140.576 18.298C139.519 18.9393 138.253 19.26 136.78 19.26ZM133.218 12.214C133.218 13.0113 133.374 13.722 133.686 14.346C133.998 14.9527 134.423 15.4293 134.96 15.776C135.497 16.1227 136.104 16.296 136.78 16.296C137.439 16.296 138.037 16.1227 138.574 15.776C139.111 15.412 139.536 14.9267 139.848 14.32C140.177 13.696 140.342 12.9853 140.342 12.188C140.342 11.408 140.177 10.7147 139.848 10.108C139.536 9.484 139.111 8.99867 138.574 8.652C138.037 8.288 137.439 8.106 136.78 8.106C136.104 8.106 135.497 8.288 134.96 8.652C134.423 8.99867 133.998 9.484 133.686 10.108C133.374 10.7147 133.218 11.4167 133.218 12.214Z" fill="black"/>
</svg>

<svg width="144" height="20" fill="none" xmlns="http://www.w3.org/2000/svg"><path d="M8.242.592h3.328l2.106 6.11 2.132-6.11h3.302L15.938 8.99l2.34 5.876L23.504.54h3.9L20.02 19h-3.094l-3.25-7.748L10.452 19H7.358L0 .54h3.848L9.1 14.866l2.288-5.876L8.242.592zM34.227 19.26c-1.473 0-2.747-.32-3.822-.962a6.826 6.826 0 01-2.47-2.548 7.13 7.13 0 01-.884-3.484c0-1.283.286-2.461.858-3.536a6.662 6.662 0 012.496-2.6c1.075-.659 2.357-.988 3.848-.988 1.49 0 2.765.33 3.822.988a6.395 6.395 0 012.418 2.574 7.1 7.1 0 01.858 3.432c0 .45-.026.84-.078 1.17h-10.53c.087 1.057.477 1.89 1.17 2.496.71.607 1.525.91 2.444.91.693 0 1.343-.165 1.95-.494.624-.347 1.049-.797 1.274-1.352l2.99.832c-.503 1.04-1.309 1.898-2.418 2.574-1.11.659-2.418.988-3.926.988zm-3.562-8.164h7.124c-.104-1.023-.494-1.846-1.17-2.47-.659-.641-1.465-.962-2.418-.962-.936 0-1.742.32-2.418.962-.659.624-1.031 1.447-1.118 2.47zm21.336 8.164c-1.04 0-1.967-.234-2.782-.702a5.126 5.126 0 01-1.924-1.924V19h-3.042V.02h3.484v7.748a5.457 5.457 0 011.898-1.924c.798-.468 1.725-.702 2.782-.702 1.18 0 2.21.33 3.094.988.902.641 1.604 1.5 2.106 2.574.503 1.075.754 2.253.754 3.536 0 1.317-.277 2.505-.832 3.562a6.561 6.561 0 01-2.288 2.522c-.953.624-2.036.936-3.25.936zm-.962-2.964c.746 0 1.396-.182 1.95-.546a3.702 3.702 0 001.326-1.456c.33-.624.494-1.3.494-2.028 0-.745-.156-1.43-.468-2.054a3.764 3.764 0 00-1.248-1.534 3.11 3.11 0 00-1.846-.572c-.762 0-1.464.26-2.106.78a4.693 4.693 0 00-1.404 1.872v3.25c.226.676.668 1.23 1.326 1.664.66.416 1.318.624 1.976.624z" fill="#2196F3"/><path d="M72.848 5.376c-.156-.173-.485-.399-.988-.676-.503-.295-1.11-.555-1.82-.78a6.485 6.485 0 00-2.158-.364c-1.959 0-2.938.693-2.938 2.08 0 .503.156.901.468 1.196.312.295.78.546 1.404.754.624.208 1.404.433 2.34.676 1.213.312 2.262.676 3.146 1.092.901.416 1.586.97 2.054 1.664.485.676.728 1.577.728 2.704 0 1.317-.32 2.383-.962 3.198-.624.797-1.456 1.378-2.496 1.742-1.04.364-2.167.546-3.38.546-1.387 0-2.765-.208-4.134-.624-1.352-.433-2.557-1.023-3.614-1.768l1.586-3.094c.156.156.433.364.832.624.399.243.884.494 1.456.754.572.243 1.196.45 1.872.624a8.24 8.24 0 002.054.26c1.976 0 2.964-.633 2.964-1.898 0-.537-.2-.97-.598-1.3-.399-.33-.962-.607-1.69-.832-.71-.225-1.543-.477-2.496-.754-1.179-.33-2.158-.693-2.938-1.092-.763-.416-1.335-.927-1.716-1.534-.381-.624-.572-1.413-.572-2.366 0-1.265.295-2.323.884-3.172.607-.867 1.421-1.517 2.444-1.95C65.603.636 66.738.41 67.986.41c1.283 0 2.479.208 3.588.624 1.11.416 2.063.893 2.86 1.43l-1.586 2.912zm13.249 12.922c-.468.208-1.05.416-1.742.624a7.12 7.12 0 01-2.106.312c-.642 0-1.231-.113-1.768-.338a2.892 2.892 0 01-1.3-1.066c-.312-.503-.468-1.153-.468-1.95V8.054h-1.794V5.376h1.794V.956h3.484v4.42h2.86v2.678h-2.86v6.656c0 .468.12.806.364 1.014.26.208.572.312.936.312.364 0 .719-.06 1.066-.182.346-.121.624-.225.832-.312l.702 2.756zm2.464-4.394V5.376h3.484v7.774c0 2.097.754 3.146 2.262 3.146.676 0 1.326-.2 1.95-.598.641-.416 1.161-1.04 1.56-1.872v-8.45h3.484V15.1c0 .381.061.65.182.806.121.139.338.225.65.26V19a7.272 7.272 0 01-1.508.156c-.624 0-1.135-.139-1.534-.416-.381-.295-.607-.693-.676-1.196l-.078-1.092c-.607.936-1.387 1.638-2.34 2.106-.953.468-2.002.702-3.146.702-1.404 0-2.47-.45-3.198-1.352-.728-.919-1.092-2.253-1.092-4.004zm16.15-1.716c0-1.3.26-2.487.78-3.562.52-1.075 1.24-1.924 2.158-2.548.919-.624 1.968-.936 3.146-.936 1.006 0 1.907.251 2.704.754.815.485 1.448 1.11 1.898 1.872V.02h3.484V15.1c0 .381.061.65.182.806.122.139.33.225.624.26V19c-.624.121-1.118.182-1.482.182-.624 0-1.144-.156-1.56-.468a1.72 1.72 0 01-.676-1.222l-.052-.858a5.05 5.05 0 01-2.054 1.95 5.634 5.634 0 01-2.678.676c-1.265 0-2.383-.312-3.354-.936a6.772 6.772 0 01-2.288-2.548c-.554-1.075-.832-2.27-.832-3.588zm10.686 1.82v-3.25a4.05 4.05 0 00-1.43-1.898c-.676-.503-1.369-.754-2.08-.754-.71 0-1.334.2-1.872.598a3.77 3.77 0 00-1.248 1.534 4.698 4.698 0 00-.442 2.028c0 .745.165 1.43.494 2.054a3.99 3.99 0 001.326 1.456c.572.347 1.222.52 1.95.52.659 0 1.309-.217 1.95-.65.659-.433 1.11-.98 1.352-1.638zm7.684-10.53V.02h3.484v3.458h-3.484zm0 15.522V5.376h3.484V19h-3.484zm13.699.26c-1.491 0-2.773-.32-3.848-.962a6.769 6.769 0 01-2.444-2.6 7.302 7.302 0 01-.858-3.484c0-1.265.286-2.435.858-3.51a6.772 6.772 0 012.47-2.574c1.075-.659 2.349-.988 3.822-.988 1.473 0 2.739.33 3.796.988a6.523 6.523 0 012.47 2.574 7.354 7.354 0 01.858 3.51c0 1.248-.286 2.41-.858 3.484-.572 1.075-1.395 1.941-2.47 2.6-1.057.641-2.323.962-3.796.962zm-3.562-7.046c0 .797.156 1.508.468 2.132a3.649 3.649 0 001.274 1.43c.537.347 1.144.52 1.82.52.659 0 1.257-.173 1.794-.52.537-.364.962-.85 1.274-1.456.329-.624.494-1.335.494-2.132 0-.78-.165-1.473-.494-2.08-.312-.624-.737-1.11-1.274-1.456a3.126 3.126 0 00-1.794-.546 3.17 3.17 0 00-1.82.546c-.537.347-.962.832-1.274 1.456-.312.607-.468 1.309-.468 2.106z" fill="#000"/></svg>
